!!!OTL: Ritou luo shan yi dian hong
!!!ARE: Asia, China,ÿTaiwan, Xinzhu, Zhongli, Taoyuan
!! IV, 642
!!!SCT: C1708
!!!YEM: Copyright 1995, estate of Helmut Schaffrath.
**kern
*ICvox
*Ivox
*M2/4
*k[f#]
*G:
{8b
8b
4ee
=1
8ee
4.b
=2
8g
4.e
=3
8e
16e
16d#
8e
16g
16b
=4
8e
4.g
=5
2e}
=6
{8B
4.B
=7
16e
16g
16a
16g
4e
=8
8e
4.B
=9
8b
8e
8g
8b
=10
8d#
4.e
=11
[2B
=12
2B]}
=13
{8b
4.b
=14
8e
4.g
=15
4B
4r
=16
8e
8d#
12e
12g
12b
=17
8b
8e
4g}
=18
{8e
8B
4B
=19
8e
4.g
=20
8e
4.B
=21
8b
8ee
8bb
8r
=22
[2ee
=23
2ee]}
==
!!!AGN: Shange, Shangezai
!!!AMT: simple duple
!!!AIN: vox
!!!EED: Helmut Schaffrath
!!!EEV: 1.0
*-
!!!ONB: Tied note syntax fixed by Craig Sapp, 2004/05/03/
